dist/img/icons/services-design-1.svg

<?xml version="1.0" encoding="UTF-8"?>
<!-- Generator: Adobe Illustrator 17.1.0, SVG Export Plug-In . SVG Version: 6.00 Build 0)  -->
<!DOCTYPE svg PUBLIC "-//W3C//DTD SVG 1.1//EN" "http://www.w3.org/Graphics/SVG/1.1/DTD/svg11.dtd">
<svg version="1.1" id="Layer_1" xmlns="http://www.w3.org/2000/svg" xmlns:xlink="http://www.w3.org/1999/xlink" x="0px" y="0px" viewBox="0 0 38 38" enable-background="new 0 0 38 38" xml:space="preserve">
<g>
	<rect x="17" y="7" width="2" height="2"/>
	<rect x="13" y="7" width="2" height="2"/>
	<rect x="9" y="7" width="2" height="2"/>
	<path d="M34.4451,34.3168l-6.4007-21.2595L28.0616,13H29h2v-2V5V3h-2h-4h-2v2v2h-2v2h2v2v2h2h0.9384l0.0172,0.0573l-6.4007,21.2595   l1.9151,0.5766L26,19.8474V33h2V19.8474l4.53,15.046L34.4451,34.3168z M25,5h4v6h-4V5z"/>
	<rect x="5" y="7" width="2" height="2"/>
</g>
</svg>

<svg width="38" height="38" viewBox="0 0 38 38" fill="none" xmlns="http://www.w3.org/2000/svg">
<path d="M19 7H17V9H19V7Z" fill="black"/>
<path d="M15 7H13V9H15V7Z" fill="black"/>
<path d="M11 7H9V9H11V7Z" fill="black"/>
<path d="M34.4451 34.3168L28.0444 13.0573L28.0616 13H29H31V11V5V3H29H25H23V5V7H21V9H23V11V13H25H25.9384L25.9556 13.0573L19.5549 34.3168L21.47 34.8934L26 19.8474V33H28V19.8474L32.53 34.8934L34.4451 34.3168ZM25 5H29V11H25V5Z" fill="black"/>
<path d="M7 7H5V9H7V7Z" fill="black"/>
</svg>
